images/content/johnson-solids/elongated-pentagonal-pyramid.svg

<?xml version="1.0" encoding="UTF-8"?>
<svg xmlns="http://www.w3.org/2000/svg" xmlns:xlink="http://www.w3.org/1999/xlink" width="187.97pt" height="190.57pt" viewBox="0 0 187.97 190.57" version="1.2">
<defs>
<clipPath id="clip1">
  <path d="M 158 79 L 187.742188 79 L 187.742188 155 L 158 155 Z M 158 79 "/>
</clipPath>
<clipPath id="clip2">
  <path d="M 158 17 L 187.742188 17 L 187.742188 88 L 158 88 Z M 158 17 "/>
</clipPath>
<clipPath id="clip3">
  <path d="M 158 16 L 187.742188 16 L 187.742188 88 L 158 88 Z M 158 16 "/>
</clipPath>
<clipPath id="clip4">
  <path d="M 0.195312 7 L 62 7 L 62 134 L 0.195312 134 Z M 0.195312 7 "/>
</clipPath>
<clipPath id="clip5">
  <path d="M 0.195312 0 L 98 0 L 98 60 L 0.195312 60 Z M 0.195312 0 "/>
</clipPath>
<clipPath id="clip6">
  <path d="M 97 0 L 187.742188 0 L 187.742188 80 L 97 80 Z M 97 0 "/>
</clipPath>
<clipPath id="clip7">
  <path d="M 97 0 L 187.742188 0 L 187.742188 81 L 97 81 Z M 97 0 "/>
</clipPath>
<clipPath id="clip8">
  <path d="M 8 132 L 181 132 L 181 190.140625 L 8 190.140625 Z M 8 132 "/>
</clipPath>
<clipPath id="clip9">
  <path d="M 0.195312 59 L 80 59 L 80 190 L 0.195312 190 Z M 0.195312 59 "/>
</clipPath>
<clipPath id="clip10">
  <path d="M 0.195312 59 L 80 59 L 80 190.140625 L 0.195312 190.140625 Z M 0.195312 59 "/>
</clipPath>
<clipPath id="clip11">
  <path d="M 76 113 L 181 113 L 181 190.140625 L 76 190.140625 Z M 76 113 "/>
</clipPath>
<clipPath id="clip12">
  <path d="M 76 79 L 187.742188 79 L 187.742188 155 L 76 155 Z M 76 79 "/>
</clipPath>
<clipPath id="clip13">
  <path d="M 0.195312 59 L 80 59 L 80 190 L 0.195312 190 Z M 0.195312 59 "/>
</clipPath>
<clipPath id="clip14">
  <path d="M 0.195312 59 L 80 59 L 80 190.140625 L 0.195312 190.140625 Z M 0.195312 59 "/>
</clipPath>
<clipPath id="clip15">
  <path d="M 0.195312 0 L 98 0 L 98 114 L 0.195312 114 Z M 0.195312 0 "/>
</clipPath>
<clipPath id="clip16">
  <path d="M 76 0 L 187.742188 0 L 187.742188 114 L 76 114 Z M 76 0 "/>
</clipPath>
</defs>
<g id="surface1">
<path style=" stroke:none;fill-rule:nonzero;fill:rgb(67.228699%,75.059509%,90.330505%);fill-opacity:1;" d="M 64.421875 77.136719 L 9.183594 133.003906 L 180.464844 154.644531 "/>
<path style="fill:none;stroke-width:5.74288;stroke-linecap:round;stroke-linejoin:round;stroke:rgb(13.729858%,12.159729%,12.548828%);stroke-opacity:1;stroke-miterlimit:10;" d="M 643.701691 1132.592308 L 90.072488 572.659852 " transform="matrix(0.0997749,0,0,-0.0997749,0.196623,190.140968)"/>
<path style="fill-rule:nonzero;fill:rgb(67.228699%,75.059509%,90.330505%);fill-opacity:1;stroke-width:5.74288;stroke-linecap:round;stroke-linejoin:round;stroke:rgb(13.729858%,12.159729%,12.548828%);stroke-opacity:1;stroke-miterlimit:10;" d="M 1806.749759 355.765306 L 1589.385405 1026.92473 L 643.701691 1132.592308 " transform="matrix(0.0997749,0,0,-0.0997749,0.196623,190.140968)"/>
<path style="fill-rule:nonzero;fill:rgb(92.808533%,68.954468%,55.708313%);fill-opacity:1;stroke-width:5.74288;stroke-linecap:round;stroke-linejoin:round;stroke:rgb(13.729858%,12.159729%,12.548828%);stroke-opacity:1;stroke-miterlimit:10;" d="M 90.072488 572.659852 L 643.701691 1132.592308 L 610.462797 1830.530771 " transform="matrix(0.0997749,0,0,-0.0997749,0.196623,190.140968)"/>
<path style="fill-rule:nonzero;fill:rgb(66.941833%,46.636963%,62.716675%);fill-opacity:1;stroke-width:5.74288;stroke-linecap:round;stroke-linejoin:round;stroke:rgb(13.729858%,12.159729%,12.548828%);stroke-opacity:1;stroke-miterlimit:10;" d="M 643.701691 1132.592308 L 1589.385405 1026.92473 L 1632.607711 1732.810773 " transform="matrix(0.0997749,0,0,-0.0997749,0.196623,190.140968)"/>
<path style="fill-rule:nonzero;fill:rgb(66.941833%,46.636963%,62.716675%);fill-opacity:1;stroke-width:5.74288;stroke-linecap:round;stroke-linejoin:round;stroke:rgb(13.729858%,12.159729%,12.548828%);stroke-opacity:1;stroke-miterlimit:10;" d="M 1632.607711 1732.810773 L 610.462797 1830.530771 L 643.701691 1132.592308 " transform="matrix(0.0997749,0,0,-0.0997749,0.196623,190.140968)"/>
<g clip-path="url(#clip1)" clip-rule="nonzero">
<path style="fill-rule:nonzero;fill:rgb(18.663025%,19.798279%,47.987366%);fill-opacity:1;stroke-width:5.74288;stroke-linecap:round;stroke-linejoin:round;stroke:rgb(13.729858%,12.159729%,12.548828%);stroke-opacity:1;stroke-miterlimit:10;" d="M 1589.385405 1026.92473 L 1806.749759 355.765306 L 1876.829405 1104.051492 " transform="matrix(0.0997749,0,0,-0.0997749,0.196623,190.140968)"/>
</g>
<g clip-path="url(#clip2)" clip-rule="nonzero">
<path style=" stroke:none;fill-rule:nonzero;fill:rgb(18.663025%,19.798279%,47.987366%);fill-opacity:1;" d="M 187.457031 79.984375 L 163.089844 17.25 L 158.777344 87.679688 "/>
</g>
<g clip-path="url(#clip3)" clip-rule="nonzero">
<path style="fill:none;stroke-width:5.74288;stroke-linecap:round;stroke-linejoin:round;stroke:rgb(13.729858%,12.159729%,12.548828%);stroke-opacity:1;stroke-miterlimit:10;" d="M 1876.829405 1104.051492 L 1632.607711 1732.810773 L 1589.385405 1026.92473 " transform="matrix(0.0997749,0,0,-0.0997749,0.196623,190.140968)"/>
</g>
<g clip-path="url(#clip4)" clip-rule="nonzero">
<path style="fill-rule:nonzero;fill:rgb(92.808533%,68.954468%,55.708313%);fill-opacity:1;stroke-width:5.74288;stroke-linecap:round;stroke-linejoin:round;stroke:rgb(13.729858%,12.159729%,12.548828%);stroke-opacity:1;stroke-miterlimit:10;" d="M 610.462797 1830.530771 L 2.884012 1308.80934 L 90.072488 572.659852 " transform="matrix(0.0997749,0,0,-0.0997749,0.196623,190.140968)"/>
</g>
<path style=" stroke:none;fill-rule:nonzero;fill:rgb(23.725891%,6.65741%,7.327271%);fill-opacity:1;" d="M 163.089844 17.25 L 61.105469 7.5 L 97.402344 0.285156 L 163.089844 17.25 "/>
<path style="fill:none;stroke-width:5.74288;stroke-linecap:round;stroke-linejoin:round;stroke:rgb(13.729858%,12.159729%,12.548828%);stroke-opacity:1;stroke-miterlimit:10;" d="M 1632.607711 1732.810773 L 610.462797 1830.530771 L 974.250546 1902.842003 Z M 1632.607711 1732.810773 " transform="matrix(0.0997749,0,0,-0.0997749,0.196623,190.140968)"/>
<g clip-path="url(#clip5)" clip-rule="nonzero">
<path style=" stroke:none;fill-rule:nonzero;fill:rgb(13.215637%,47.894287%,78.440857%);fill-opacity:1;" d="M 61.105469 7.5 L 0.484375 59.554688 L 97.402344 0.285156 L 61.105469 7.5 "/>
<path style="fill:none;stroke-width:5.74288;stroke-linecap:round;stroke-linejoin:round;stroke:rgb(13.729858%,12.159729%,12.548828%);stroke-opacity:1;stroke-miterlimit:10;" d="M 610.462797 1830.530771 L 2.884012 1308.80934 L 974.250546 1902.842003 Z M 610.462797 1830.530771 " transform="matrix(0.0997749,0,0,-0.0997749,0.196623,190.140968)"/>
</g>
<g clip-path="url(#clip6)" clip-rule="nonzero">
<path style=" stroke:none;fill-rule:nonzero;fill:rgb(83.482361%,93.174744%,89.309692%);fill-opacity:1;" d="M 187.457031 79.984375 L 163.089844 17.25 L 97.402344 0.285156 L 187.457031 79.984375 "/>
</g>
<g clip-path="url(#clip7)" clip-rule="nonzero">
<path style="fill:none;stroke-width:5.74288;stroke-linecap:round;stroke-linejoin:round;stroke:rgb(13.729858%,12.159729%,12.548828%);stroke-opacity:1;stroke-miterlimit:10;" d="M 1876.829405 1104.051492 L 1632.607711 1732.810773 L 974.250546 1902.842003 Z M 1876.829405 1104.051492 " transform="matrix(0.0997749,0,0,-0.0997749,0.196623,190.140968)"/>
</g>
<path style=" stroke:none;fill-rule:nonzero;fill:rgb(67.228699%,75.059509%,90.330505%);fill-opacity:1;" d="M 9.183594 133.003906 L 79.570312 189.855469 L 180.464844 154.644531 "/>
<g clip-path="url(#clip8)" clip-rule="nonzero">
<path style="fill:none;stroke-width:5.74288;stroke-linecap:round;stroke-linejoin:round;stroke:rgb(13.729858%,12.159729%,12.548828%);stroke-opacity:1;stroke-miterlimit:10;" d="M 90.072488 572.659852 L 795.527874 2.861435 L 1806.749759 355.765306 " transform="matrix(0.0997749,0,0,-0.0997749,0.196623,190.140968)"/>
</g>
<g clip-path="url(#clip9)" clip-rule="nonzero">
<path style=" stroke:none;fill-rule:nonzero;fill:rgb(37.252808%,22.563171%,53.75061%);fill-opacity:1;" d="M 79.570312 189.855469 L 9.183594 133.003906 L 0.484375 59.554688 "/>
</g>
<g clip-path="url(#clip10)" clip-rule="nonzero">
<path style="fill:none;stroke-width:5.74288;stroke-linecap:round;stroke-linejoin:round;stroke:rgb(13.729858%,12.159729%,12.548828%);stroke-opacity:1;stroke-miterlimit:10;" d="M 795.527874 2.861435 L 90.072488 572.659852 L 2.884012 1308.80934 " transform="matrix(0.0997749,0,0,-0.0997749,0.196623,190.140968)"/>
</g>
<path style=" stroke:none;fill-rule:nonzero;fill:rgb(81.10199%,54.423523%,55.354309%);fill-opacity:1;" d="M 180.464844 154.644531 L 79.570312 189.855469 L 76.921875 113.539062 "/>
<g clip-path="url(#clip11)" clip-rule="nonzero">
<path style="fill:none;stroke-width:5.74288;stroke-linecap:round;stroke-linejoin:round;stroke:rgb(13.729858%,12.159729%,12.548828%);stroke-opacity:1;stroke-miterlimit:10;" d="M 1806.749759 355.765306 L 795.527874 2.861435 L 768.98374 767.747492 " transform="matrix(0.0997749,0,0,-0.0997749,0.196623,190.140968)"/>
</g>
<g clip-path="url(#clip12)" clip-rule="nonzero">
<path style="fill-rule:nonzero;fill:rgb(81.10199%,54.423523%,55.354309%);fill-opacity:1;stroke-width:5.74288;stroke-linecap:round;stroke-linejoin:round;stroke:rgb(13.729858%,12.159729%,12.548828%);stroke-opacity:1;stroke-miterlimit:10;" d="M 768.98374 767.747492 L 1876.829405 1104.051492 L 1806.749759 355.765306 " transform="matrix(0.0997749,0,0,-0.0997749,0.196623,190.140968)"/>
</g>
<g clip-path="url(#clip13)" clip-rule="nonzero">
<path style=" stroke:none;fill-rule:nonzero;fill:rgb(37.252808%,22.563171%,53.75061%);fill-opacity:1;" d="M 0.484375 59.554688 L 76.921875 113.539062 L 79.570312 189.855469 "/>
</g>
<g clip-path="url(#clip14)" clip-rule="nonzero">
<path style="fill:none;stroke-width:5.74288;stroke-linecap:round;stroke-linejoin:round;stroke:rgb(13.729858%,12.159729%,12.548828%);stroke-opacity:1;stroke-miterlimit:10;" d="M 2.884012 1308.80934 L 768.98374 767.747492 L 795.527874 2.861435 " transform="matrix(0.0997749,0,0,-0.0997749,0.196623,190.140968)"/>
</g>
<g clip-path="url(#clip15)" clip-rule="nonzero">
<path style=" stroke:none;fill-rule:nonzero;fill:rgb(56.851196%,58.575439%,80.935669%);fill-opacity:1;" d="M 0.484375 59.554688 L 76.921875 113.539062 L 97.402344 0.285156 L 0.484375 59.554688 "/>
<path style="fill:none;stroke-width:5.74288;stroke-linecap:round;stroke-linejoin:round;stroke:rgb(13.729858%,12.159729%,12.548828%);stroke-opacity:1;stroke-miterlimit:10;" d="M 2.884012 1308.80934 L 768.98374 767.747492 L 974.250546 1902.842003 Z M 2.884012 1308.80934 " transform="matrix(0.0997749,0,0,-0.0997749,0.196623,190.140968)"/>
</g>
<g clip-path="url(#clip16)" clip-rule="nonzero">
<path style=" stroke:none;fill-rule:nonzero;fill:rgb(76.451111%,70.779419%,81.208801%);fill-opacity:1;" d="M 76.921875 113.539062 L 187.457031 79.984375 L 97.402344 0.285156 L 76.921875 113.539062 "/>
<path style="fill:none;stroke-width:5.74288;stroke-linecap:round;stroke-linejoin:round;stroke:rgb(13.729858%,12.159729%,12.548828%);stroke-opacity:1;stroke-miterlimit:10;" d="M 768.98374 767.747492 L 1876.829405 1104.051492 L 974.250546 1902.842003 Z M 768.98374 767.747492 " transform="matrix(0.0997749,0,0,-0.0997749,0.196623,190.140968)"/>
</g>
</g>
</svg>

<svg xmlns="http://www.w3.org/2000/svg" width="250.627" height="254.093" viewBox="0 0 187.97 190.57" version="1.2"><defs><clipPath id="a"><path d="M158 79h29.742v76H158Zm0 0"/></clipPath><clipPath id="b"><path d="M158 17h29.742v71H158Zm0 0"/></clipPath><clipPath id="c"><path d="M158 16h29.742v72H158Zm0 0"/></clipPath><clipPath id="d"><path d="M.195 7H62v127H.195Zm0 0"/></clipPath><clipPath id="e"><path d="M.195 0H98v60H.195Zm0 0"/></clipPath><clipPath id="f"><path d="M97 0h90.742v80H97Zm0 0"/></clipPath><clipPath id="g"><path d="M97 0h90.742v81H97Zm0 0"/></clipPath><clipPath id="h"><path d="M8 132h173v58.14H8Zm0 0"/></clipPath><clipPath id="i"><path d="M.195 59H80v131H.195Zm0 0"/></clipPath><clipPath id="j"><path d="M.195 59H80v131.14H.195Zm0 0"/></clipPath><clipPath id="k"><path d="M76 113h105v77.14H76Zm0 0"/></clipPath><clipPath id="l"><path d="M76 79h111.742v76H76Zm0 0"/></clipPath><clipPath id="m"><path d="M.195 59H80v131H.195Zm0 0"/></clipPath><clipPath id="n"><path d="M.195 59H80v131.14H.195Zm0 0"/></clipPath><clipPath id="o"><path d="M.195 0H98v114H.195Zm0 0"/></clipPath><clipPath id="p"><path d="M76 0h111.742v114H76Zm0 0"/></clipPath></defs><path style="stroke:none;fill-rule:nonzero;fill:#abbfe6;fill-opacity:1" d="M64.422 77.137 9.184 133.004l171.28 21.64"/><path style="fill:none;stroke-width:5.74288;stroke-linecap:round;stroke-linejoin:round;stroke:#231f20;stroke-opacity:1;stroke-miterlimit:10" d="M643.702 1132.592 90.072 572.66" transform="matrix(.09977 0 0 -.09977 .197 190.141)"/><path style="fill-rule:nonzero;fill:#abbfe6;fill-opacity:1;stroke-width:5.74288;stroke-linecap:round;stroke-linejoin:round;stroke:#231f20;stroke-opacity:1;stroke-miterlimit:10" d="m1806.75 355.765-217.365 671.16-945.683 105.667" transform="matrix(.09977 0 0 -.09977 .197 190.141)"/><path style="fill-rule:nonzero;fill:#edb08e;fill-opacity:1;stroke-width:5.74288;stroke-linecap:round;stroke-linejoin:round;stroke:#231f20;stroke-opacity:1;stroke-miterlimit:10" d="m90.072 572.66 553.63 559.932-33.24 697.939" transform="matrix(.09977 0 0 -.09977 .197 190.141)"/><path style="fill-rule:nonzero;fill:#ab77a0;fill-opacity:1;stroke-width:5.74288;stroke-linecap:round;stroke-linejoin:round;stroke:#231f20;stroke-opacity:1;stroke-miterlimit:10" d="m643.702 1132.592 945.683-105.667 43.223 705.886" transform="matrix(.09977 0 0 -.09977 .197 190.141)"/><path style="fill-rule:nonzero;fill:#ab77a0;fill-opacity:1;stroke-width:5.74288;stroke-linecap:round;stroke-linejoin:round;stroke:#231f20;stroke-opacity:1;stroke-miterlimit:10" d="m1632.608 1732.81-1022.145 97.72 33.239-697.938" transform="matrix(.09977 0 0 -.09977 .197 190.141)"/><g clip-path="url(#a)"><path style="fill-rule:nonzero;fill:#30327a;fill-opacity:1;stroke-width:5.74288;stroke-linecap:round;stroke-linejoin:round;stroke:#231f20;stroke-opacity:1;stroke-miterlimit:10" d="m1589.385 1026.925 217.365-671.16 70.08 748.286" transform="matrix(.09977 0 0 -.09977 .197 190.141)"/></g><g clip-path="url(#b)"><path style="stroke:none;fill-rule:nonzero;fill:#30327a;fill-opacity:1" d="M187.457 79.984 163.09 17.25l-4.313 70.43"/></g><g clip-path="url(#c)"><path style="fill:none;stroke-width:5.74288;stroke-linecap:round;stroke-linejoin:round;stroke:#231f20;stroke-opacity:1;stroke-miterlimit:10" d="m1876.83 1104.051-244.222 628.76-43.223-705.886" transform="matrix(.09977 0 0 -.09977 .197 190.141)"/></g><g clip-path="url(#d)"><path style="fill-rule:nonzero;fill:#edb08e;fill-opacity:1;stroke-width:5.74288;stroke-linecap:round;stroke-linejoin:round;stroke:#231f20;stroke-opacity:1;stroke-miterlimit:10" d="M610.463 1830.53 2.884 1308.81l87.188-736.15" transform="matrix(.09977 0 0 -.09977 .197 190.141)"/></g><path style="stroke:none;fill-rule:nonzero;fill:#3d1113;fill-opacity:1" d="M163.09 17.25 61.105 7.5 97.402.285 163.09 17.25"/><path style="fill:none;stroke-width:5.74288;stroke-linecap:round;stroke-linejoin:round;stroke:#231f20;stroke-opacity:1;stroke-miterlimit:10" d="m1632.608 1732.81-1022.145 97.72 363.788 72.312Zm0 0" transform="matrix(.09977 0 0 -.09977 .197 190.141)"/><g clip-path="url(#e)"><path style="stroke:none;fill-rule:nonzero;fill:#227ac8;fill-opacity:1" d="M61.105 7.5.485 59.555 97.401.285 61.105 7.5"/><path style="fill:none;stroke-width:5.74288;stroke-linecap:round;stroke-linejoin:round;stroke:#231f20;stroke-opacity:1;stroke-miterlimit:10" d="M610.463 1830.53 2.884 1308.81l971.367 594.032Zm0 0" transform="matrix(.09977 0 0 -.09977 .197 190.141)"/></g><g clip-path="url(#f)"><path style="stroke:none;fill-rule:nonzero;fill:#d5eee4;fill-opacity:1" d="M187.457 79.984 163.09 17.25 97.402.285l90.055 79.7"/></g><g clip-path="url(#g)"><path style="fill:none;stroke-width:5.74288;stroke-linecap:round;stroke-linejoin:round;stroke:#231f20;stroke-opacity:1;stroke-miterlimit:10" d="m1876.83 1104.051-244.222 628.76-658.357 170.031Zm0 0" transform="matrix(.09977 0 0 -.09977 .197 190.141)"/></g><path style="stroke:none;fill-rule:nonzero;fill:#abbfe6;fill-opacity:1" d="m9.184 133.004 70.386 56.851 100.895-35.21"/><g clip-path="url(#h)"><path style="fill:none;stroke-width:5.74288;stroke-linecap:round;stroke-linejoin:round;stroke:#231f20;stroke-opacity:1;stroke-miterlimit:10" d="M90.072 572.66 795.528 2.86 1806.75 355.765" transform="matrix(.09977 0 0 -.09977 .197 190.141)"/></g><g clip-path="url(#i)"><path style="stroke:none;fill-rule:nonzero;fill:#5f3a89;fill-opacity:1" d="M79.57 189.855 9.184 133.004l-8.7-73.45"/></g><g clip-path="url(#j)"><path style="fill:none;stroke-width:5.74288;stroke-linecap:round;stroke-linejoin:round;stroke:#231f20;stroke-opacity:1;stroke-miterlimit:10" d="M795.528 2.861 90.072 572.66 2.884 1308.81" transform="matrix(.09977 0 0 -.09977 .197 190.141)"/></g><path style="stroke:none;fill-rule:nonzero;fill:#cf8b8d;fill-opacity:1" d="M180.465 154.645 79.57 189.855l-2.648-76.316"/><g clip-path="url(#k)"><path style="fill:none;stroke-width:5.74288;stroke-linecap:round;stroke-linejoin:round;stroke:#231f20;stroke-opacity:1;stroke-miterlimit:10" d="M1806.75 355.765 795.528 2.861l-26.544 764.886" transform="matrix(.09977 0 0 -.09977 .197 190.141)"/></g><g clip-path="url(#l)"><path style="fill-rule:nonzero;fill:#cf8b8d;fill-opacity:1;stroke-width:5.74288;stroke-linecap:round;stroke-linejoin:round;stroke:#231f20;stroke-opacity:1;stroke-miterlimit:10" d="m768.984 767.747 1107.845 336.304-70.08-748.286" transform="matrix(.09977 0 0 -.09977 .197 190.141)"/></g><g clip-path="url(#m)"><path style="stroke:none;fill-rule:nonzero;fill:#5f3a89;fill-opacity:1" d="m.484 59.555 76.438 53.984 2.648 76.316"/></g><g clip-path="url(#n)"><path style="fill:none;stroke-width:5.74288;stroke-linecap:round;stroke-linejoin:round;stroke:#231f20;stroke-opacity:1;stroke-miterlimit:10" d="m2.884 1308.81 766.1-541.063L795.528 2.861" transform="matrix(.09977 0 0 -.09977 .197 190.141)"/></g><g clip-path="url(#o)"><path style="stroke:none;fill-rule:nonzero;fill:#9195ce;fill-opacity:1" d="m.484 59.555 76.438 53.984L97.402.285.484 59.555"/><path style="fill:none;stroke-width:5.74288;stroke-linecap:round;stroke-linejoin:round;stroke:#231f20;stroke-opacity:1;stroke-miterlimit:10" d="m2.884 1308.81 766.1-541.063L974.25 1902.842Zm0 0" transform="matrix(.09977 0 0 -.09977 .197 190.141)"/></g><g clip-path="url(#p)"><path style="stroke:none;fill-rule:nonzero;fill:#c3b4cf;fill-opacity:1" d="m76.922 113.54 110.535-33.556L97.402.285 76.922 113.54"/><path style="fill:none;stroke-width:5.74288;stroke-linecap:round;stroke-linejoin:round;stroke:#231f20;stroke-opacity:1;stroke-miterlimit:10" d="m768.984 767.747 1107.845 336.304-902.578 798.791Zm0 0" transform="matrix(.09977 0 0 -.09977 .197 190.141)"/></g></svg>
